build/img/icon-choices.svg

<svg width="14" height="8" viewBox="0 0 14 8" fill="none" xmlns="http://www.w3.org/2000/svg">
<path fill-rule="evenodd" clip-rule="evenodd" d="M1.3103 6.98455C1.70065 7.37409 2.33268 7.37409 2.72304 6.98455L6.29363 3.42138C6.68398 3.03184 7.31602 3.03184 7.70637 3.42138L11.277 6.98455C11.6673 7.37409 12.2993 7.37409 12.6897 6.98455L12.7907 6.88378C13.1822 6.49309 13.1822 5.85879 12.7907 5.4681L7.70637 0.394356C7.31602 0.0048117 6.68398 0.00481117 6.29363 0.394355L1.20932 5.4681C0.817811 5.85879 0.81781 6.49309 1.20932 6.88378L1.3103 6.98455Z" fill="#2C8ECC"/>
</svg>

<svg width="14" height="8" fill="none" xmlns="http://www.w3.org/2000/svg"><path fill-rule="evenodd" clip-rule="evenodd" d="M1.31 6.985a1 1 0 001.413 0l3.57-3.564a1 1 0 011.413 0l3.571 3.564a1 1 0 001.413 0l.1-.101a1 1 0 000-1.416L7.707.394a1 1 0 00-1.412 0L1.209 5.468a1 1 0 000 1.416l.101.1z" fill="#2C8ECC"/></svg>
